public/library/noah-icon-light.svg

<svg width="114" height="30" viewBox="0 0 114 30" fill="none" xmlns="http://www.w3.org/2000/svg">
<path d="M93.0245 0.793457V16.1006L88.2179 0.793457H83.4688V28.8656H88.2179V15.1133L92.5114 28.8656H97.7719V0.793457H93.0245Z" fill="#9BA1B0"/>
<path d="M0.205078 0.793457V28.8656H4.95428V16.8302H9.35915V12.0766H4.95428V5.54875H11.785V0.793457H0.205078Z" fill="#9BA1B0"/>
<path d="M61.8774 0.793457H48.7168V5.54875H52.9234V28.8656H57.6708V5.54875H61.8774V0.793457Z" fill="#9BA1B0"/>
<path d="M102.422 0.793457V28.8656H114V24.1102H107.171V16.8302H111.574V12.0766H107.171V5.54875H114V0.793457H102.422Z" fill="#9BA1B0"/>
<path d="M46.5396 28.8656H41.6338L38.1229 15.5364C38.1229 15.5364 41.1416 14.9932 41.1416 11.7754V7.38923C41.1416 6.37234 40.3192 5.54875 39.3036 5.54875H37.4776V28.8656H32.7285V0.793457H39.3001C42.8407 0.793457 45.7222 3.59161 45.8753 7.10019H45.8892V11.6883H45.8753C45.8753 14.4586 44.971 16.4575 43.3136 17.7286L46.5396 28.8656Z" fill="#9BA1B0"/>
<path d="M74.2249 0.793457V22.6615C74.2249 23.6802 73.4006 24.5073 72.3816 24.5073C71.3642 24.5073 70.5384 23.6802 70.5384 22.6615V0.793457H65.7891V22.6615C65.7891 26.306 68.7402 29.2608 72.3798 29.2608C76.0196 29.2608 78.9708 26.306 78.9708 22.6615V0.793457H74.2249Z" fill="#9BA1B0"/>
<path d="M14.8535 6.99745V22.6615C14.8535 26.3059 17.8046 29.2608 21.4443 29.2608C25.0841 29.2608 28.035 26.3059 28.035 22.6615V6.99571C28.035 3.35132 25.0858 0.398193 21.446 0.398193H21.4443C17.8046 0.398193 14.8535 3.35306 14.8535 6.99745ZM19.6009 22.6615V6.99745C19.6009 5.97883 20.4252 5.15174 21.4443 5.15174H21.4495C22.4651 5.15174 23.2877 5.97535 23.2877 6.99222V22.6615C23.2877 23.6802 22.4633 24.5072 21.446 24.5072C20.427 24.5072 19.6009 23.6802 19.6009 22.6615Z" fill="#9BA1B0"/>
</svg>

<svg xmlns="http://www.w3.org/2000/svg" width="114" height="30" fill="none" viewBox="0 0 114 30"><path fill="#9ba1b0" d="M93.025.793v15.308L88.218.793h-4.75v28.073h4.75V15.113l4.293 13.753h5.26V.793zM.205.793v28.073h4.75V16.83h4.404v-4.753H4.954V5.549h6.831V.793zM61.877.793h-13.16V5.55h4.206v23.317h4.748V5.549h4.206zM102.422.793v28.073H114V24.11h-6.829v-7.28h4.403v-4.753h-4.403V5.549H114V.793zM46.54 28.866h-4.906l-3.511-13.33s3.019-.543 3.019-3.76V7.388c0-1.017-.823-1.84-1.838-1.84h-1.826v23.317h-4.75V.793H39.3c3.54 0 6.422 2.799 6.575 6.307h.014v4.588h-.014c0 2.77-.904 4.77-2.561 6.04zM74.225.793v21.869a1.844 1.844 0 1 1-3.687 0V.793H65.79v21.869c0 3.644 2.951 6.599 6.59 6.599a6.595 6.595 0 0 0 6.592-6.6V.794zM14.854 6.997v15.665c0 3.644 2.95 6.599 6.59 6.599s6.591-2.955 6.591-6.6V6.997A6.59 6.59 0 0 0 21.446.398h-.002a6.595 6.595 0 0 0-6.59 6.6M19.6 22.662V6.997c0-1.018.824-1.845 1.843-1.845h.006c1.015 0 1.838.823 1.838 1.84v15.67a1.844 1.844 0 1 1-3.687 0"/></svg>
